packages/core/src/svgs/kicks.svg

<svg width="24" height="24" viewBox="0 0 24 24" fill="none" xmlns="http://www.w3.org/2000/svg">
<g clip-path="url(#clip0_31_12596)">
<path d="M0 0H24V24H0V0Z" fill="url(#paint0_linear_31_12596)"/>
<path d="M7.94148 8.44723L8.14291 7.71437H5.04863C4.73204 7.71272 4.42463 7.82065 4.17857 8.01985C3.9325 8.21905 3.76293 8.49724 3.69863 8.80723L3.44577 10.0629C3.42039 10.195 3.42465 10.3311 3.45824 10.4613C3.49183 10.5916 3.55393 10.7127 3.64003 10.8161C3.72614 10.9194 3.83411 11.0023 3.95615 11.0588C4.0782 11.1154 4.21127 11.1441 4.34577 11.1429H7.25577L7.71434 9.42866H6.47148L6.24434 10.0715H5.13863C5.09916 10.0726 5.05997 10.0646 5.0241 10.0481C4.98823 10.0316 4.95663 10.0071 4.93177 9.97642C4.9069 9.94575 4.88943 9.90977 4.88071 9.87127C4.87199 9.83276 4.87226 9.79276 4.88148 9.75437L5.07863 8.97866C5.09308 8.92167 5.12632 8.87122 5.17297 8.83545C5.21963 8.79968 5.27698 8.78068 5.33577 8.78152H7.49577C7.70577 8.78152 7.88577 8.64437 7.94148 8.44723ZM13.5086 12.7329L13.7143 12.0001H11.0572C10.7396 11.9981 10.431 12.1057 10.1835 12.3048C9.93595 12.5039 9.76471 12.7823 9.69863 13.0929L9.44577 14.3487C9.42031 14.4811 9.42466 14.6176 9.45849 14.7481C9.49233 14.8787 9.5548 15 9.64138 15.1035C9.72797 15.2069 9.83648 15.2897 9.95906 15.3459C10.0816 15.4022 10.2152 15.4304 10.3501 15.4287H12.9901L13.2215 14.3572H11.1429C11.1034 14.3583 11.0643 14.3503 11.0284 14.3338C10.9925 14.3173 10.9609 14.2928 10.9361 14.2621C10.9112 14.2315 10.8937 14.1955 10.885 14.157C10.8763 14.1185 10.8765 14.0785 10.8858 14.0401L11.0872 13.2644C11.1016 13.2074 11.1349 13.1569 11.1815 13.1212C11.2282 13.0854 11.2856 13.0664 11.3443 13.0672H13.0586C13.2729 13.0672 13.4529 12.9301 13.5043 12.7329H13.5086Z" fill="#F0F3FA"/>
<path fill-rule="evenodd" clip-rule="evenodd" d="M8.4085 8.80692C8.48107 8.49233 8.6594 8.21218 8.91369 8.01327C9.16799 7.81436 9.48284 7.70874 9.80564 7.71406H11.3785C11.9785 7.71406 12.4285 8.23692 12.3128 8.79406L12.0856 9.85692H9.64278C9.58595 9.85692 9.53145 9.87949 9.49126 9.91968C9.45107 9.95986 9.4285 10.0144 9.4285 10.0712C9.4285 10.128 9.45107 10.1825 9.49126 10.2227C9.53145 10.2629 9.58595 10.2855 9.64278 10.2855H11.9999L11.8242 11.1426H9.16278C8.51993 11.1426 8.03993 10.5855 8.16421 9.98549L8.4085 8.80692ZM9.85707 8.78549C9.85707 8.66549 9.95136 8.5712 10.0714 8.5712H10.9285C10.9853 8.5712 11.0398 8.59378 11.08 8.63396C11.1202 8.67415 11.1428 8.72866 11.1428 8.78549C11.1428 8.84232 11.1202 8.89682 11.08 8.93701C11.0398 8.9772 10.9853 8.99977 10.9285 8.99977H10.0714C10.0145 8.99977 9.96002 8.9772 9.91983 8.93701C9.87965 8.89682 9.85707 8.84232 9.85707 8.78549Z" fill="#F0F3FA"/>
<path d="M13.2858 8.78564L12.973 10.3714C12.954 10.4644 12.9558 10.5605 12.9784 10.6528C13.001 10.745 13.0437 10.8311 13.1036 10.9049C13.1634 10.9787 13.2388 11.0383 13.3244 11.0794C13.41 11.1205 13.5037 11.1422 13.5987 11.1428H15.5701L15.8572 10.0714H14.3572L14.6401 8.78564H14.9101C15.2744 8.78564 15.7158 8.45136 15.7887 8.08707L15.8572 7.71422H14.8372L14.9315 7.28564H13.5601L13.4744 7.71422H13.0458L12.8572 8.78564H13.2858ZM8.02296 11.9999H9.42868L8.69153 15.4285H7.28582L8.02296 11.9999ZM15.4158 12.9299L15.5958 11.9999H14.3187L13.6458 15.4285H14.923L15.0687 14.6999L15.4972 14.2628L16.2687 15.4285H17.743L16.4915 13.4871L18.0001 11.9999C17.0572 12.0214 16.1487 12.3471 15.4158 12.9299ZM3.24439 11.9999H4.52582L4.26868 13.2856H4.67582L5.94439 11.9999H7.30725L5.81582 13.7485L6.85725 15.4285H6.38153C5.7301 15.1628 4.88153 14.6485 4.68439 13.8771C4.58582 13.8985 4.35868 13.9542 4.20439 14.0056C4.12296 14.0314 4.0501 14.0785 3.98582 14.1214C3.89153 14.1856 3.81439 14.2371 3.75439 14.1985C3.67725 14.1471 3.63868 14.0056 3.62582 13.9414C3.71153 13.9842 3.89153 14.0571 3.91725 14.0056C3.94725 13.9414 3.88296 13.6799 3.62582 13.6799C3.36868 13.6799 3.2401 14.1042 3.2401 14.4599C3.2401 14.8156 3.49725 14.9099 3.62582 14.9099H3.65153C3.82725 14.9099 4.4701 14.9014 4.6801 15.3299L4.61582 15.3042C4.45725 15.2356 4.21296 15.1328 3.85296 15.1071C3.64437 15.0984 3.43869 15.0549 3.24439 14.9785C3.29582 15.0642 3.4501 15.2356 3.6301 15.2356C3.82725 15.2356 4.20868 15.2614 4.40153 15.4285H2.57153L3.24439 11.9999ZM22.2001 12.4456L22.2858 11.9999H19.5344C19.2392 12.0033 18.9573 12.1233 18.7502 12.3336C18.5431 12.5439 18.4275 12.8276 18.4287 13.1228V13.3585C18.4287 13.7528 18.7287 14.0871 19.1058 14.1428L20.8458 14.4085H18.7587C18.4158 14.4085 18.1158 14.6656 18.0644 15.0171L18.0001 15.4285H20.9101C21.4501 15.4285 21.7972 14.9956 21.8315 14.4428L21.8572 14.0356C21.883 13.6414 21.6858 13.2985 21.3001 13.2771L19.963 13.1914C19.9417 13.1892 19.9221 13.1793 19.9078 13.1634C19.8936 13.1476 19.8857 13.127 19.8858 13.1056C19.8858 13.0628 19.9244 13.0199 19.9715 13.0199H21.523C21.853 13.0199 22.1401 12.7799 22.2044 12.4456H22.2001Z" fill="#F0F3FA"/>
</g>
<defs>
<linearGradient id="paint0_linear_31_12596" x1="12" y1="0" x2="12" y2="24" gradientUnits="userSpaceOnUse">
<stop stop-color="#FF5959"/>
<stop offset="1" stop-color="#E72324"/>
</linearGradient>
<clipPath id="clip0_31_12596">
<rect width="24" height="24" fill="white"/>
</clipPath>
</defs>
</svg>

<svg xmlns="http://www.w3.org/2000/svg" width="24" height="24" fill="none" viewBox="0 0 24 24"><g clip-path="url(#a)"><path fill="url(#b)" d="M0 0h24v24H0z"/><path fill="#F0F3FA" d="m7.941 8.447.202-.733H5.049a1.37 1.37 0 0 0-1.35 1.093l-.253 1.256a.91.91 0 0 0 .9 1.08h2.91l.458-1.714H6.471l-.227.643H5.14a.257.257 0 0 1-.258-.318l.198-.775a.26.26 0 0 1 .257-.197h2.16a.46.46 0 0 0 .445-.335m5.568 4.286.205-.733h-2.657A1.38 1.38 0 0 0 9.7 13.093l-.253 1.256a.908.908 0 0 0 .904 1.08h2.64l.232-1.072h-2.08a.257.257 0 0 1-.256-.317l.201-.776a.26.26 0 0 1 .257-.197h1.715a.45.45 0 0 0 .445-.334z"/><path fill="#F0F3FA" fill-rule="evenodd" d="M8.409 8.807a1.41 1.41 0 0 1 1.397-1.093h1.573c.6 0 1.05.523.934 1.08l-.227 1.063H9.643a.214.214 0 1 0 0 .429H12l-.176.857H9.163c-.643 0-1.123-.558-.999-1.158zm1.448-.022c0-.12.094-.214.214-.214h.857a.214.214 0 0 1 0 .429h-.857a.214.214 0 0 1-.214-.215" clip-rule="evenodd"/><path fill="#F0F3FA" d="m13.286 8.786-.313 1.585a.642.642 0 0 0 .626.772h1.971l.287-1.072h-1.5l.283-1.285h.27c.364 0 .806-.335.879-.699l.068-.373h-1.02l.095-.428H13.56l-.086.428h-.428l-.189 1.072zM8.023 12h1.406l-.737 3.428H7.286zm7.393.93.18-.93h-1.277l-.673 3.428h1.277l.146-.728.428-.437.772 1.165h1.474l-1.251-1.94L18 12a4.3 4.3 0 0 0-2.584.93M3.244 12h1.282l-.257 1.286h.407L5.944 12h1.363l-1.491 1.749 1.041 1.68h-.475c-.652-.266-1.5-.78-1.698-1.552a6 6 0 0 0-.48.129 1 1 0 0 0-.218.115c-.094.065-.172.116-.232.077-.077-.05-.115-.192-.128-.257.086.043.266.116.291.065.03-.065-.034-.326-.291-.326s-.386.424-.386.78.257.45.386.45h.026c.175 0 .818-.009 1.028.42l-.064-.026a2.2 2.2 0 0 0-.763-.197 1.9 1.9 0 0 1-.609-.128c.052.085.206.257.386.257.197 0 .579.025.772.192h-1.83zm18.956.446.086-.446h-2.752a1.12 1.12 0 0 0-1.105 1.123v.236c0 .394.3.728.677.784l1.74.265h-2.087a.71.71 0 0 0-.695.61l-.064.41h2.91c.54 0 .887-.432.921-.985l.026-.407c.026-.395-.171-.737-.557-.759l-1.337-.086a.086.086 0 0 1-.077-.085c0-.043.038-.086.085-.086h1.552a.7.7 0 0 0 .681-.574z"/></g><defs><linearGradient id="b" x1="12" x2="12" y1="0" y2="24" gradientUnits="userSpaceOnUse"><stop stop-color="#FF5959"/><stop offset="1" stop-color="#E72324"/></linearGradient><clipPath id="a"><path fill="#fff" d="M0 0h24v24H0z"/></clipPath></defs></svg>
